dist/svg/fullscreen-exit.svg

<!-- Generated by Trend Micro Style Portal -->
<svg version="1.1" xmlns="http://www.w3.org/2000/svg" width="16" height="16" viewBox="0 0 16 16">
  <title>fullscreen-exit</title>
  <path fill="rgb(34,34,34)" d="M4.5 3.8l-2.8-2.8-0.7 0.7 2.8 2.8h-2.8v1.5h5v-5h-1.5v2.8zM10 10v5h1.5v-2.8l2.8 2.8 0.7-0.7-2.8-2.8h2.8v-1.5h-5zM1 10v1.5h2.8l-2.8 2.8 0.7 0.7 2.8-2.8v2.8h1.5v-5h-5zM15 1.7l-0.7-0.7-2.8 2.8v-2.8h-1.5v5h5v-1.5h-2.8l2.8-2.8z"></path>
</svg>

<svg width="16" height="16" viewBox="0 0 16 16" fill="rgb(34, 34, 34)" xmlns="http://www.w3.org/2000/svg"><title>fullscreen-exit</title><path d="M4.5 3.8L1.7 1L1 1.7L3.8 4.5H1V6H6V1H4.5V3.8ZM10 10V15H11.5V12.2L14.3 15L15 14.3L12.2 11.5H15V10H10ZM1 10V11.5H3.8L1 14.3L1.7 15L4.5 12.2V15H6V10H1ZM15 1.7L14.3 1L11.5 3.8V1H10V6H15V4.5H12.2L15 1.7Z" fill="rgb(34, 34, 34)" fill-opacity="1.00"/></svg>
